X:1
T: London Bridge
C:
R:Reel
Q: 232
K:D
M:4/4
L:1/8
|:de|d2 AF D2 FA|d2 fd e2 ge|fd cd Bc de|fd ge dc BA|
d2 AF D2 FA|d2 fd e2 ge|fd cd Ad ce|f2 d2 d2 de|
fd cd Bd Ad|Gd Fd EF DF|GF GA Bc de|fd ge dc BA|
Be ge Ad fd|GB eG FA dA|gf ed Ad cd|f2 d2 d2:|
